icons/shopping-bag-fill.svg

<svg viewBox="0 0 24 24" fill="currentColor" xmlns="http://www.w3.org/2000/svg"><path d="M12.0049 0.999695C14.7663 0.999695 17.0049 3.23827 17.0049 5.99969V7.99969H20.0049C20.5572 7.99969 21.0049 8.44741 21.0049 8.99969V20.9997C21.0049 21.552 20.5572 21.9997 20.0049 21.9997H4.00488C3.4526 21.9997 3.00488 21.552 3.00488 20.9997V8.99969C3.00488 8.44741 3.4526 7.99969 4.00488 7.99969H7.00488V5.99969C7.00488 3.23827 9.24346 0.999695 12.0049 0.999695ZM17.0049 10.9997H15.0049V11.9997C15.0049 12.552 15.4526 12.9997 16.0049 12.9997C16.5177 12.9997 16.9404 12.6137 16.9982 12.1163L17.0049 11.9997V10.9997ZM9.00488 10.9997H7.00488V11.9997C7.00488 12.552 7.4526 12.9997 8.00488 12.9997C8.51772 12.9997 8.94039 12.6137 8.99815 12.1163L9.00488 11.9997V10.9997ZM12.0049 2.99969C10.4072 2.99969 9.10122 4.24861 9.00998 5.82342L9.00488 5.99969V7.99969H15.0049V5.99969C15.0049 4.40201 13.756 3.09603 12.1812 3.00479L12.0049 2.99969Z"/></svg>

<svg xmlns="http://www.w3.org/2000/svg" viewBox="0 0 24 24">
    <g>
        <path fill="none" d="M0 0h24v24H0z"/>
        <path d="M12 1a5 5 0 0 1 5 5v2h3a1 1 0 0 1 1 1v12a1 1 0 0 1-1 1H4a1 1 0 0 1-1-1V9a1 1 0 0 1 1-1h3V6a5 5 0 0 1 5-5zm5 10h-2v1a1 1 0 0 0 1.993.117L17 12v-1zm-8 0H7v1a1 1 0 0 0 1.993.117L9 12v-1zm3-8a3 3 0 0 0-2.995 2.824L9 6v2h6V6a3 3 0 0 0-2.824-2.995L12 3z"/>
    </g>
</svg>
